PortableApps/LibreOfficePortable/App/libreoffice/help/media/icon-themes/cmd/sc_currencyfield.svg

<svg viewBox="0 0 16 16" xmlns="http://www.w3.org/2000/svg"><path d="m1 4v8h14v-8z" fill="#fff"/><path d="m0 3v10h15 1v-1-8-1h-1zm2 1h12c0 .554.446 1 1 1v6c-.552285 0-1 .447715-1 1h-12c0-.554-.446-1-1-1v-6c.554 0 1-.446 1-1zm6 1c-1.6568542 0-3 1.3431458-3 3s1.3431458 3 3 3 3-1.3431458 3-3-1.3431458-3-3-3z" fill="#4d82b8"/><path d="m6 10a3 2 0 0 0 -3 2v2a3 2 0 0 0 3 2 3 2 0 0 0 3-2v-2a3 2 0 0 0 -3-2zm0 1a2 1 0 0 1 2 1 2 1 0 0 1 -2 1 2 1 0 0 1 -2-1 2 1 0 0 1 2-1zm-2 2.488281a3 2 0 0 0 2 .511719 3 2 0 0 0 2-.511719v1a3 2 0 0 1 -2 .511719 3 2 0 0 1 -2-.511719z" fill="#eac282"/><path d="m6 11a2 1 0 0 0 -2 1 2 1 0 0 0 2 1 2 1 0 0 0 2-1 2 1 0 0 0 -2-1zm-2 2.488281v1a3 2 0 0 0 2 .511719 3 2 0 0 0 2-.511719v-1a3 2 0 0 1 -2 .511719 3 2 0 0 1 -2-.511719z" fill="#fff"/><path d="m13 10a3 2 0 0 0 -3 2v2a3 2 0 0 0 3 2 3 2 0 0 0 3-2v-2a3 2 0 0 0 -3-2zm0 1a2 1 0 0 1 2 1 2 1 0 0 1 -2 1 2 1 0 0 1 -2-1 2 1 0 0 1 2-1zm-2 2.488281a3 2 0 0 0 2 .511719 3 2 0 0 0 2-.511719v1a3 2 0 0 1 -2 .511719 3 2 0 0 1 -2-.511719z" fill="#eac282"/><path d="m13 11a2 1 0 0 0 -2 1 2 1 0 0 0 2 1 2 1 0 0 0 2-1 2 1 0 0 0 -2-1zm-2 2.488281v1a3 2 0 0 0 2 .511719 3 2 0 0 0 2-.511719v-1a3 2 0 0 1 -2 .511719 3 2 0 0 1 -2-.511719z" fill="#fff"/><path d="m13 8a3 2 0 0 0 -3 2v2a3 2 0 0 0 3 2 3 2 0 0 0 3-2v-2a3 2 0 0 0 -3-2zm0 1a2 1 0 0 1 2 1 2 1 0 0 1 -2 1 2 1 0 0 1 -2-1 2 1 0 0 1 2-1zm-2 2.488281a3 2 0 0 0 2 .511719 3 2 0 0 0 2-.511719v1a3 2 0 0 1 -2 .511719 3 2 0 0 1 -2-.511719z" fill="#eac282"/><path d="m13 9a2 1 0 0 0 -2 1 2 1 0 0 0 2 1 2 1 0 0 0 2-1 2 1 0 0 0 -2-1zm-2 2.488281v1a3 2 0 0 0 2 .511719 3 2 0 0 0 2-.511719v-1a3 2 0 0 1 -2 .511719 3 2 0 0 1 -2-.511719z" fill="#fff"/></svg>

<svg viewBox="0 0 16 16" xmlns="http://www.w3.org/2000/svg">
<path
   style="fill:#ffffff"
   d="m 1,4 v 8 H 15 V 4 Z"
   />
<path
   style="fill:#4d82b8"
   d="m 0,3 v 10 h 15 1 V 12 4 3 h -1 z m 2,1 h 12 c 0,0.554 0.446,1 1,1 v 6 c -0.552285,0 -1,0.447715 -1,1 H 2 C 2,11.446 1.554,11 1,11 V 5 C 1.554,5 2,4.554 2,4 Z M 8,5 C 6.3431458,5 5,6.3431458 5,8 5,9.6568542 6.3431458,11 8,11 9.6568542,11 11,9.6568542 11,8 11,6.3431458 9.6568542,5 8,5 Z"
   />
<path
   style="fill:#eac282"
   d="m 6,10 a 3,2 0 0 0 -3,2 v 2 a 3,2 0 0 0 3,2 3,2 0 0 0 3,-2 V 12 A 3,2 0 0 0 6,10 Z m 0,1 A 2,1 0 0 1 8,12 2,1 0 0 1 6,13 2,1 0 0 1 4,12 2,1 0 0 1 6,11 Z M 4,13.488281 A 3,2 0 0 0 6,14 3,2 0 0 0 8,13.488281 v 1 A 3,2 0 0 1 6,15 3,2 0 0 1 4,14.488281 Z"
   />
<path
   style="fill:#ffffff"
   d="m 6,11 a 2,1 0 0 0 -2,1 2,1 0 0 0 2,1 2,1 0 0 0 2,-1 2,1 0 0 0 -2,-1 z m -2,2.488281 v 1 A 3,2 0 0 0 6,15 3,2 0 0 0 8,14.488281 v -1 A 3,2 0 0 1 6,14 3,2 0 0 1 4,13.488281 Z"
   />
<path
   style="fill:#eac282"
   d="m 13,10 a 3,2 0 0 0 -3,2 v 2 a 3,2 0 0 0 3,2 3,2 0 0 0 3,-2 v -2 a 3,2 0 0 0 -3,-2 z m 0,1 a 2,1 0 0 1 2,1 2,1 0 0 1 -2,1 2,1 0 0 1 -2,-1 2,1 0 0 1 2,-1 z m -2,2.488281 A 3,2 0 0 0 13,14 3,2 0 0 0 15,13.488281 v 1 A 3,2 0 0 1 13,15 3,2 0 0 1 11,14.488281 Z"
   />
<path
   style="fill:#ffffff"
   d="m 13,11 a 2,1 0 0 0 -2,1 2,1 0 0 0 2,1 2,1 0 0 0 2,-1 2,1 0 0 0 -2,-1 z m -2,2.488281 v 1 A 3,2 0 0 0 13,15 3,2 0 0 0 15,14.488281 v -1 A 3,2 0 0 1 13,14 3,2 0 0 1 11,13.488281 Z"
   />
<path
   style="fill:#eac282"
   d="m 13,8 a 3,2 0 0 0 -3,2 v 2 a 3,2 0 0 0 3,2 3,2 0 0 0 3,-2 V 10 A 3,2 0 0 0 13,8 Z m 0,1 a 2,1 0 0 1 2,1 2,1 0 0 1 -2,1 2,1 0 0 1 -2,-1 2,1 0 0 1 2,-1 z m -2,2.488281 A 3,2 0 0 0 13,12 3,2 0 0 0 15,11.488281 v 1 A 3,2 0 0 1 13,13 3,2 0 0 1 11,12.488281 Z"
   />
<path
   style="fill:#ffffff"
   d="m 13,9 a 2,1 0 0 0 -2,1 2,1 0 0 0 2,1 2,1 0 0 0 2,-1 2,1 0 0 0 -2,-1 z m -2,2.488281 v 1 A 3,2 0 0 0 13,13 3,2 0 0 0 15,12.488281 v -1 A 3,2 0 0 1 13,12 3,2 0 0 1 11,11.488281 Z"
   />
</svg>
